apps/64/gmail.svg

<?xml version="1.0" encoding="UTF-8" standalone="no"?>
<!-- Created with Inkscape (http://www.inkscape.org/) -->

<svg
   xmlns:dc="http://purl.org/dc/elements/1.1/"
   xmlns:cc="http://creativecommons.org/ns#"
   xmlns:rdf="http://www.w3.org/1999/02/22-rdf-syntax-ns#"
   xmlns:svg="http://www.w3.org/2000/svg"
   xmlns="http://www.w3.org/2000/svg"
   xmlns:sodipodi="http://sodipodi.sourceforge.net/DTD/sodipodi-0.dtd"
   xmlns:inkscape="http://www.inkscape.org/namespaces/inkscape"
   width="64"
   height="64"
   id="svg13094"
   version="1.1"
   inkscape:version="0.91+devel r"
   sodipodi:docname="gmail.svg">
  <sodipodi:namedview
     id="base"
     pagecolor="#ffffff"
     bordercolor="#666666"
     borderopacity="1.0"
     inkscape:pageopacity="0"
     inkscape:pageshadow="2"
     inkscape:zoom="11.313709"
     inkscape:cx="18.979628"
     inkscape:cy="31.326689"
     inkscape:document-units="px"
     inkscape:current-layer="svg13094"
     showgrid="true"
     inkscape:snap-bbox="true"
     inkscape:bbox-paths="true"
     inkscape:bbox-nodes="true"
     inkscape:snap-bbox-edge-midpoints="true"
     inkscape:snap-bbox-midpoints="true"
     inkscape:object-paths="true"
     inkscape:snap-intersection-paths="true"
     inkscape:object-nodes="true"
     inkscape:snap-smooth-nodes="true"
     inkscape:snap-midpoints="true"
     inkscape:snap-object-midpoints="true"
     inkscape:snap-center="true"
     showguides="true"
     inkscape:guide-bbox="true"
     inkscape:window-width="1920"
     inkscape:window-height="1023"
     inkscape:window-x="-10"
     inkscape:window-y="35"
     inkscape:window-maximized="1"
     inkscape:snap-global="true"
     fit-margin-top="0"
     fit-margin-left="0"
     fit-margin-right="0"
     fit-margin-bottom="0"
     showborder="true"
     inkscape:showpageshadow="false"
     inkscape:snap-page="true">
    <inkscape:grid
       type="xygrid"
       id="grid3075"
       empspacing="5"
       visible="true"
       enabled="true"
       snapvisiblegridlinesonly="true"
       originx="1.6362304e-08px"
       originy="18px" />
  </sodipodi:namedview>
  <defs
     id="defs13096" />
  <metadata
     id="metadata13099">
    <rdf:RDF>
      <cc:Work
         rdf:about="">
        <dc:format>image/svg+xml</dc:format>
        <dc:type
           rdf:resource="http://purl.org/dc/dcmitype/StillImage" />
        <dc:title></dc:title>
      </cc:Work>
    </rdf:RDF>
  </metadata>
  <path
     style="color:#000000;fill:#d0d3d7;fill-opacity:1;fill-rule:nonzero;stroke:none;stroke-width:2.28571415;marker:none;visibility:visible;display:inline;overflow:visible;enable-background:accumulate"
     d="m 0,2 0,32 0,28 2,2 30,0 30,0 2,-2 0,-28 0,-32 -32,0 z"
     id="path6498"
     inkscape:connector-curvature="0"
     sodipodi:nodetypes="ccccccccccc" />
  <path
     style="fill:#babdc0;fill-opacity:1;stroke:none"
     d="M 1,63 32,33 63,63 62,64 2,64 z"
     id="path3043"
     inkscape:connector-curvature="0"
     sodipodi:nodetypes="cccccc" />
  <path
     style="color:#000000;fill:#f3f6f7;fill-opacity:1;fill-rule:nonzero;stroke:none;marker:none;visibility:visible;display:inline;overflow:visible;enable-background:accumulate"
     d="M 2,0 0,1 0,2 32,2 64,2 64,1 62,0 32,0 z"
     id="path6502"
     inkscape:connector-curvature="0"
     sodipodi:nodetypes="ccccccccc" />
  <g
     id="g3043"
     inkscape:export-filename="folder.png"
     inkscape:export-xdpi="90"
     inkscape:export-ydpi="90"
     transform="translate(-0.62500009,0.082283)" />
  <path
     style="fill:#ffffff;fill-opacity:0.35070675;fill-rule:nonzero"
     d="M 0,1 0,34 0,62 1,63 1,34 1,3 2,2 1,1.46875 1,1 z"
     id="path3864"
     inkscape:connector-curvature="0"
     sodipodi:nodetypes="cccccccccc" />
  <g
     id="scalable"
     transform="matrix(1.0385892,0,0,1.0385892,1214.7222,1878.8121)"
     inkscape:label="#g3701"
     style="fill:#ffffff" />
  <path
     style="color:#000000;font-style:normal;font-variant:normal;font-weight:normal;font-stretch:normal;font-size:medium;line-height:normal;font-family:Sans;-inkscape-font-specification:Sans;text-indent:0;text-align:start;text-decoration:none;text-decoration-line:none;letter-spacing:normal;word-spacing:normal;text-transform:none;direction:ltr;block-progression:tb;writing-mode:lr-tb;baseline-shift:baseline;text-anchor:start;display:inline;overflow:visible;visibility:visible;fill:#e6e8ea;fill-opacity:1;stroke:none;stroke-width:8;marker:none;enable-background:accumulate"
     d="m 0,2 0,10 0,0.46875 4,3.875 L 25.21875,36.875 C 25.964786,37.596604 26.962078,38.000004 28,38 l 8,0 c 1.037922,4e-6 2.035214,-0.403396 2.78125,-1.125 L 60,16.34375 64,12.46875 64,11 64,2 Z"
     id="path3901"
     inkscape:connector-curvature="0"
     sodipodi:nodetypes="cccccsscccccc" />
  <path
     sodipodi:nodetypes="ccccccccccccccc"
     inkscape:connector-curvature="0"
     id="path4211"
     d="m 15,2 -4.03125,4 5,0 L 20,2 Z m 20,0 -4.03125,4 5,0 L 40,2 Z m 20,0 -4.03125,4 5,0 L 60,2 Z"
     style="color:#000000;display:inline;overflow:visible;visibility:visible;fill:#6692e9;fill-opacity:1;fill-rule:nonzero;stroke:none;stroke-width:2;marker:none;enable-background:accumulate" />
  <path
     style="color:#000000;display:inline;overflow:visible;visibility:visible;fill:#2a65d9;fill-opacity:1;fill-rule:nonzero;stroke:none;stroke-width:2;marker:none;enable-background:accumulate"
     d="M 4,52.96875 0,57 0,62 4,57.96875 Z M 64,53 60,57.03125 60,59 l -2,0 -4.03125,4 5,0 L 60,61.96875 60,62.03125 64,58 Z m -46,6 -4.03125,4 5,0 L 23,59 Z m 20,0 -4.03125,4 5,0 L 43,59 Z"
     id="rect4177"
     inkscape:connector-curvature="0"
     sodipodi:nodetypes="ccccccccccccccccccccccccc" />
  <path
     id="path4213"
     d="M 5,2 4,2.96875 4,3 2.5,4.5 0.96875,6 0,7 0,12 4,7.96875 4,6 5.96875,6 10,2 Z m 20,0 -4.03125,4 5,0 L 30,2 Z m 20,0 -4.03125,4 5,0 L 50,2 Z m 19,1 -4,4 0,5 4,-4.03125 z"
     style="color:#000000;display:inline;overflow:visible;visibility:visible;fill:#eb4242;fill-opacity:1;fill-rule:nonzero;stroke:none;stroke-width:2;marker:none;enable-background:accumulate"
     inkscape:connector-curvature="0"
     sodipodi:nodetypes="ccccccccccccccccccccccccccc" />
  <path
     style="color:#000000;display:inline;overflow:visible;visibility:visible;fill:#db3333;fill-opacity:1;fill-rule:nonzero;stroke:none;stroke-width:2;marker:none;enable-background:accumulate"
     d="m 8,59 -4.03125,4 5,0 L 13,59 Z m 20,0 -4.03125,4 5,0 L 33,59 Z m 20,0 -4.03125,4 5,0 L 53,59 Z"
     id="rect4189"
     inkscape:connector-curvature="0"
     sodipodi:nodetypes="ccccccccccccccc" />
  <g
     style="font-size:5px;font-style:italic;font-variant:normal;font-weight:bold;font-stretch:normal;line-height:125%;letter-spacing:0px;word-spacing:0px;fill:#000000;fill-opacity:0.35600706;stroke:none;font-family:Oxygen;-inkscape-font-specification:Oxygen Bold Italic"
     id="text4514"
     transform="translate(78.1375,3.565729)" />
  <path
     id="path4172"
     d="M 0,2 0,12 0,12.46875 0,58 4,58 4,16.34375 25.21875,36.875 A 4.0004,4.0004 0 0 0 28,38 l 8,0 a 4.0004,4.0004 0 0 0 2.78125,-1.125 L 60,16.34375 60,57 64,57 64,12.46875 64,11 64,2 63.3125,2 34.375,30 29.625,30 0.6875,2 0,2 Z"
     style="color:#000000;font-style:normal;font-variant:normal;font-weight:normal;font-stretch:normal;font-size:medium;line-height:normal;font-family:Sans;-inkscape-font-specification:Sans;text-indent:0;text-align:start;text-decoration:none;text-decoration-line:none;letter-spacing:normal;word-spacing:normal;text-transform:none;direction:ltr;block-progression:tb;writing-mode:lr-tb;baseline-shift:baseline;text-anchor:start;display:inline;overflow:visible;visibility:visible;fill:#db3333;fill-opacity:1;stroke:none;stroke-width:8;marker:none;enable-background:accumulate"
     inkscape:connector-curvature="0" />
  <path
     sodipodi:nodetypes="cccccsscccccccccc"
     inkscape:connector-curvature="0"
     id="path4187"
     d="m 0,2 0,10 0,0.46875 4,3.875 L 25.21875,36.875 C 25.964786,37.596604 26.962078,38.000004 28,38 l 8,0 c 1.037922,4e-6 2.035214,-0.403396 2.78125,-1.125 L 60,16.34375 64,12.46875 64,11 64,2 63.3125,2 34.375,30 29.625,30 0.6875,2 Z"
     style="color:#000000;font-style:normal;font-variant:normal;font-weight:normal;font-stretch:normal;font-size:medium;line-height:normal;font-family:Sans;-inkscape-font-specification:Sans;text-indent:0;text-align:start;text-decoration:none;text-decoration-line:none;letter-spacing:normal;word-spacing:normal;text-transform:none;direction:ltr;block-progression:tb;writing-mode:lr-tb;baseline-shift:baseline;text-anchor:start;display:inline;overflow:visible;visibility:visible;fill:#eb4242;fill-opacity:1;stroke:none;stroke-width:8;marker:none;enable-background:accumulate" />
  <path
     style="fill:#f8fafa;fill-opacity:1;fill-rule:nonzero"
     d="M 0,1 0,4 2,2 Z"
     id="path4298"
     inkscape:connector-curvature="0"
     sodipodi:nodetypes="cccc" />
  <path
     d="M 64,4 62,2 64,1 z"
     id="path3028"
     style="fill:#eceef0;fill-opacity:1"
     inkscape:connector-curvature="0"
     sodipodi:nodetypes="cccc" />
</svg>

<?xml version="1.0" encoding="UTF-8"?>
<!-- Created with Inkscape (http://www.inkscape.org/) -->
<svg width="64" height="64" version="1.1" xmlns="http://www.w3.org/2000/svg" xmlns:cc="http://creativecommons.org/ns#" xmlns:dc="http://purl.org/dc/elements/1.1/" xmlns:rdf="http://www.w3.org/1999/02/22-rdf-syntax-ns#" xmlns:xlink="http://www.w3.org/1999/xlink">
	<defs>
		<radialGradient id="b" cx="32" cy="33" r="32" gradientTransform="matrix(.96875 0 0 .93848 1 2.0303)" gradientUnits="userSpaceOnUse">
			<stop stop-color="#b0b5bb" offset="0"/>
			<stop stop-color="#d0d3d7" offset="1"/>
		</radialGradient>
		<radialGradient id="a" cx="32" cy="31.5" r="31" gradientTransform="matrix(1 0 0 .5 0 24.25)" gradientUnits="userSpaceOnUse">
			<stop stop-color="#a4a9ac" offset="0"/>
			<stop stop-color="#babdc0" stop-opacity=".99569" offset="1"/>
		</radialGradient>
	</defs>
	<metadata>
		<rdf:RDF>
			<cc:Work rdf:about="">
				<dc:format>image/svg+xml</dc:format>
				<dc:type rdf:resource="http://purl.org/dc/dcmitype/StillImage"/>
				<dc:title/>
			</cc:Work>
		</rdf:RDF>
	</metadata>
	<path d="m0 2v32 28l2 2h30 30l2-2v-28-32h-32z" color="#000000" fill="url(#b)"/>
	<path d="m1 63 31-30 31 30-1 1h-60z" fill="url(#a)"/>
	<path d="m2 0-2 1v1h32 32v-1l-2-1h-30z" color="#000000" fill="#f9fafb"/>
	<path d="m0 1v33 28l1 1v-29-31l1-1-1-0.53125v-0.46875z" fill="#ffffff" fill-opacity=".35071"/>
	<path d="m0 2v10 0.46875l4 3.875 21.219 20.531c0.74604 0.7216 1.7433 1.125 2.7812 1.125h8c1.0379 4e-6 2.0352-0.4034 2.7812-1.125l21.219-20.531 4-3.875v-1.4688-9z" color="#000000" fill="#e6e8ea" style="block-progression:tb;text-decoration-line:none;text-indent:0;text-transform:none"/>
	<path d="m15 2-4.0312 4h5l4.0312-4zm20 0-4.0312 4h5l4.0312-4zm20 0-4.0312 4h5l4.0312-4z" color="#000000" fill="#6692e9"/>
	<path d="m4 52.969-4 4.0312v5l4-4.0312zm60 0.03125-4 4.0312v1.9688h-2l-4.0312 4h5l1.0312-1.0312v0.0625l4-4.0312zm-46 6-4.0312 4h5l4.0312-4zm20 0-4.0312 4h5l4.0312-4z" color="#000000" fill="#2a65d9"/>
	<path d="m5 2-1 0.96875v0.03125l-1.5 1.5-1.5312 1.5-0.96875 1v5l4-4.0312v-1.9688h1.9688l4.0312-4zm20 0-4.0312 4h5l4.0312-4zm20 0-4.0312 4h5l4.0312-4zm19 1-4 4v5l4-4.0312z" color="#000000" fill="#fa4054" style="font-variant-east_asian:normal"/>
	<path d="m8 59-4.0312 4h5l4.0312-4zm20 0-4.0312 4h5l4.0312-4zm20 0-4.0312 4h5l4.0312-4z" color="#000000" fill="#da2e42"/>
	<path d="m0 2v10 0.46875 45.531h4v-41.656l21.219 20.531a4.0004 4.0004 0 0 0 2.7812 1.125h8a4.0004 4.0004 0 0 0 2.7812-1.125l21.219-20.531v40.656h4v-44.531-1.4688-9h-0.6875l-28.938 28h-4.75l-28.938-28h-0.6875z" color="#000000" fill="#da2e42" style="block-progression:tb;text-decoration-line:none;text-indent:0;text-transform:none"/>
	<path d="m0 2v10 0.46875l4 3.875 21.219 20.531c0.74604 0.7216 1.7433 1.125 2.7812 1.125h8c1.0379 4e-6 2.0352-0.4034 2.7812-1.125l21.219-20.531 4-3.875v-1.4688-9h-0.6875l-28.938 28h-4.75l-28.938-28z" color="#000000" fill="#fa4054" style="text-decoration-line:none;text-indent:0;text-transform:none"/>
	<path d="m0 1v3l2-2z" fill="#fbfcfc"/>
	<path d="m64 4-2-2 2-1z" fill="#eceef0"/>
</svg>
